app/clientComponent/section6_contact/images/left.svg

<svg width="390" height="654" viewBox="0 0 390 654" fill="none" xmlns="http://www.w3.org/2000/svg">
<path d="M57.24 166.72C53.52 166.72 49.2 166.54 44.28 166.18C42.48 166.06 40.2 165.94 37.44 165.82C34.68 165.7 31.56 165.64 28.08 165.64L15.3 165.82C13.02 165.94 9.84 166 5.76 166C5.52 166 5.4 165.64 5.4 164.92C5.4 164.2 5.52 163.84 5.76 163.84C9.84 163.84 12.78 163.54 14.58 162.94C16.5 162.34 17.82 161.2 18.54 159.52C19.26 157.72 19.62 155.02 19.62 151.42V68.08C19.62 64.48 19.26 61.84 18.54 60.16C17.94 58.48 16.68 57.34 14.76 56.74C12.84 56.02 9.9 55.66 5.94 55.66C5.7 55.66 5.58 55.3 5.58 54.58C5.58 53.86 5.7 53.5 5.94 53.5L15.48 53.68C20.76 53.92 24.96 54.04 28.08 54.04C32.88 54.04 37.74 53.86 42.66 53.5C48.66 53.26 52.68 53.14 54.72 53.14C66.96 53.14 77.82 55.54 87.3 60.34C96.78 65.14 104.1 71.68 109.26 79.96C114.54 88.24 117.18 97.54 117.18 107.86C117.18 119.5 114.48 129.82 109.08 138.82C103.68 147.7 96.42 154.6 87.3 159.52C78.18 164.32 68.16 166.72 57.24 166.72ZM55.44 163.12C63.72 163.12 71.04 161.14 77.4 157.18C83.88 153.22 88.92 147.4 92.52 139.72C96.12 131.92 97.92 122.62 97.92 111.82C97.92 101.5 96.18 92.2 92.7 83.92C89.34 75.52 84.54 68.92 78.3 64.12C72.06 59.2 64.8 56.74 56.52 56.74C51.48 56.74 47.58 57.04 44.82 57.64C42.06 58.24 40.02 59.38 38.7 61.06C37.5 62.62 36.9 65.08 36.9 68.44V149.44C36.9 154.36 38.16 157.9 40.68 160.06C43.2 162.1 48.12 163.12 55.44 163.12ZM167.632 168.34C160.432 168.34 154.072 166.66 148.552 163.3C143.032 159.82 138.772 155.2 135.772 149.44C132.772 143.56 131.272 137.2 131.272 130.36C131.272 122.56 133.192 115.96 137.032 110.56C140.992 105.04 145.972 100.96 151.972 98.32C158.092 95.56 164.332 94.18 170.692 94.18C178.012 94.18 184.372 95.92 189.772 99.4C195.292 102.88 199.492 107.5 202.372 113.26C205.252 118.9 206.692 124.96 206.692 131.44C206.692 138.64 204.892 145.06 201.292 150.7C197.812 156.34 193.072 160.72 187.072 163.84C181.072 166.84 174.592 168.34 167.632 168.34ZM173.032 164.74C178.312 164.74 182.332 162.4 185.092 157.72C187.972 153.04 189.412 146.2 189.412 137.2C189.412 129.16 188.272 122.14 185.992 116.14C183.832 110.14 180.832 105.58 176.992 102.46C173.272 99.34 169.192 97.78 164.752 97.78C159.352 97.78 155.272 100 152.512 104.44C149.752 108.88 148.372 115.42 148.372 124.06C148.372 131.86 149.392 138.88 151.432 145.12C153.592 151.24 156.532 156.04 160.252 159.52C164.092 163 168.352 164.74 173.032 164.74ZM303.591 163.84C303.951 163.84 304.131 164.2 304.131 164.92C304.131 165.64 303.951 166 303.591 166C300.591 166 298.251 165.94 296.571 165.82L286.131 165.64L275.871 165.82C274.071 165.94 271.671 166 268.671 166C268.311 166 268.131 165.64 268.131 164.92C268.131 164.2 268.311 163.84 268.671 163.84C272.751 163.84 275.451 163 276.771 161.32C278.091 159.64 278.751 156.34 278.751 151.42V124.42C278.751 117.7 277.491 112.78 274.971 109.66C272.571 106.42 268.731 104.8 263.451 104.8C260.331 104.8 257.151 105.52 253.911 106.96C250.671 108.4 247.731 110.32 245.091 112.72V151.42C245.091 156.34 245.751 159.64 247.071 161.32C248.391 163 251.091 163.84 255.171 163.84C255.531 163.84 255.711 164.2 255.711 164.92C255.711 165.64 255.531 166 255.171 166C252.171 166 249.831 165.94 248.151 165.82L237.711 165.64L227.271 165.82C225.591 165.94 223.251 166 220.251 166C219.891 166 219.711 165.64 219.711 164.92C219.711 164.2 219.891 163.84 220.251 163.84C224.331 163.84 227.031 163 228.351 161.32C229.671 159.64 230.331 156.34 230.331 151.42V117.04C230.331 113.2 229.851 110.38 228.891 108.58C228.051 106.78 226.611 105.88 224.571 105.88C222.771 105.88 219.771 106.78 215.571 108.58H215.391C214.911 108.58 214.551 108.28 214.311 107.68C214.071 107.08 214.131 106.72 214.491 106.6L238.071 95.08C238.791 94.84 239.211 94.72 239.331 94.72C240.531 94.72 241.731 96.1 242.931 98.86C244.251 101.5 244.971 104.98 245.091 109.3C253.491 99.34 262.611 94.36 272.451 94.36C279.051 94.36 284.211 96.4 287.931 100.48C291.651 104.44 293.511 109.84 293.511 116.68V151.42C293.511 156.34 294.171 159.64 295.491 161.32C296.811 163 299.511 163.84 303.591 163.84ZM307.756 56.74C307.636 55.42 309.376 54.1 312.976 52.78C316.576 51.46 319.756 50.8 322.516 50.8C324.436 50.8 325.336 51.22 325.216 52.06L314.596 100.12C314.356 100.36 313.816 100.54 312.976 100.66C312.256 100.78 311.896 100.66 311.896 100.3L307.756 56.74ZM385.959 154.48C386.319 154.48 386.619 154.72 386.859 155.2C387.219 155.68 387.219 156.04 386.859 156.28C382.419 160.48 378.219 163.54 374.259 165.46C370.299 167.26 366.099 168.16 361.659 168.16C356.499 168.16 352.119 166.96 348.519 164.56C345.039 162.04 343.299 157.9 343.299 152.14V111.46C343.299 107.5 342.639 104.86 341.319 103.54C340.119 102.22 337.719 101.56 334.119 101.56C333.999 101.56 333.819 101.44 333.579 101.2C333.459 100.84 333.399 100.48 333.399 100.12C333.399 99.76 333.459 99.46 333.579 99.22C333.819 98.86 333.999 98.68 334.119 98.68C345.399 98.2 352.479 93.34 355.359 84.1C355.599 83.62 356.079 83.38 356.799 83.38C357.639 83.38 358.059 83.62 358.059 84.1V98.32C363.699 98.2 371.679 97.6 381.999 96.52C382.239 96.52 382.479 97 382.719 97.96C383.079 98.8 383.259 99.76 383.259 100.84C383.259 101.92 383.019 103 382.539 104.08C382.179 105.16 381.759 105.64 381.279 105.52C374.559 103.96 366.819 103 358.059 102.64V146.2C358.059 150.88 359.199 154.36 361.479 156.64C363.879 158.8 367.179 159.88 371.379 159.88C376.419 159.88 381.159 158.14 385.599 154.66L385.959 154.48ZM63.18 320.82C73.02 321.9 80.88 325.2 86.76 330.72C92.64 336.24 95.58 343.08 95.58 351.24C95.58 357.48 93.84 363.18 90.36 368.34C87 373.38 82.26 377.4 76.14 380.4C70.14 383.28 63.42 384.72 55.98 384.72C52.5 384.72 48.48 384.54 43.92 384.18C42.36 384.06 40.38 383.94 37.98 383.82C35.58 383.7 32.88 383.64 29.88 383.64L16.92 383.82C14.64 383.94 11.52 384 7.56 384C7.2 384 7.02 383.64 7.02 382.92C7.02 382.2 7.2 381.84 7.56 381.84C11.4 381.84 14.28 381.54 16.2 380.94C18.12 380.22 19.44 379.02 20.16 377.34C21 375.66 21.42 373.02 21.42 369.42V286.08C21.42 282.6 21 280.02 20.16 278.34C19.44 276.54 18.12 275.34 16.2 274.74C14.4 274.02 11.58 273.66 7.74 273.66C7.5 273.66 7.38 273.3 7.38 272.58C7.38 271.86 7.5 271.5 7.74 271.5L17.1 271.68C22.38 271.92 26.64 272.04 29.88 272.04C33.24 272.04 36.78 271.86 40.5 271.5C41.82 271.38 43.38 271.26 45.18 271.14C47.1 271.02 49.26 270.96 51.66 270.96C62.34 270.96 70.5 273 76.14 277.08C81.78 281.16 84.6 286.92 84.6 294.36C84.6 300.12 82.74 305.34 79.02 310.02C75.3 314.58 70.02 318.18 63.18 320.82ZM48.6 274.56C44.76 274.56 42.12 275.34 40.68 276.9C39.36 278.46 38.7 281.64 38.7 286.44V320.64L46.26 320.82C53.34 320.82 58.68 318.54 62.28 313.98C65.88 309.3 67.68 303.3 67.68 295.98C67.68 289.14 66.06 283.86 62.82 280.14C59.58 276.42 54.84 274.56 48.6 274.56ZM53.1 380.58C69.3 380.58 77.4 372.24 77.4 355.56C77.4 346.44 75 339.12 70.2 333.6C65.52 328.08 58.62 325.32 49.5 325.32C45.18 325.32 41.58 325.44 38.7 325.68V369.42C38.7 372.18 39.06 374.34 39.78 375.9C40.5 377.46 41.88 378.66 43.92 379.5C45.96 380.22 49.02 380.58 53.1 380.58ZM173.161 372.66C173.401 372.66 173.641 372.9 173.881 373.38C174.241 373.86 174.301 374.22 174.061 374.46C169.621 378.54 165.181 381.54 160.741 383.46C156.301 385.26 151.501 386.16 146.341 386.16C139.021 386.16 132.661 384.54 127.261 381.3C121.981 378.06 117.901 373.8 115.021 368.52C112.261 363.24 110.881 357.54 110.881 351.42C110.881 344.34 112.621 337.86 116.101 331.98C119.581 326.1 124.321 321.48 130.321 318.12C136.441 314.64 143.221 312.9 150.661 312.9C157.861 312.9 163.441 314.64 167.401 318.12C171.361 321.6 173.341 326.76 173.341 333.6C173.341 337.08 172.621 338.82 171.181 338.82L127.261 339C127.141 340.08 127.081 341.7 127.081 343.86C127.081 354.42 129.481 362.82 134.281 369.06C139.201 375.18 146.161 378.24 155.161 378.24C158.521 378.24 161.341 377.88 163.621 377.16C165.901 376.32 168.961 374.88 172.801 372.84L173.161 372.66ZM144.181 316.5C139.741 316.5 136.081 318.24 133.201 321.72C130.441 325.08 128.581 329.76 127.621 335.76L156.421 335.22C156.181 322.74 152.101 316.5 144.181 316.5ZM29.52 508.58C29.52 513.02 30.6 516.98 32.76 520.46C35.04 523.82 37.8 526.76 41.04 529.28C44.4 531.8 48.9 534.8 54.54 538.28C60.66 542.12 65.46 545.42 68.94 548.18C72.54 550.94 75.54 554.36 77.94 558.44C80.46 562.4 81.72 567.08 81.72 572.48C81.72 578.6 80.1 584.06 76.86 588.86C73.74 593.66 69.24 597.44 63.36 600.2C57.6 602.84 51 604.16 43.56 604.16C38.52 604.16 33.3 603.5 27.9 602.18C22.62 600.86 18.6 599.24 15.84 597.32C14.76 596.6 14.16 595.46 14.04 593.9L12.96 566.54V566.36C12.96 565.88 13.26 565.64 13.86 565.64C14.46 565.52 14.82 565.7 14.94 566.18C18.9 576.14 23.4 584.3 28.44 590.66C33.6 597.02 40.14 600.2 48.06 600.2C53.22 600.2 57.54 598.82 61.02 596.06C64.5 593.18 66.24 588.44 66.24 581.84C66.24 576.56 65.04 571.94 62.64 567.98C60.36 564.02 57.48 560.72 54 558.08C50.64 555.44 46.02 552.2 40.14 548.36C34.38 544.64 29.88 541.52 26.64 539C23.4 536.36 20.64 533.18 18.36 529.46C16.08 525.62 14.94 521.18 14.94 516.14C14.94 509.9 16.68 504.62 20.16 500.3C23.64 495.98 28.14 492.8 33.66 490.76C39.3 488.6 45.18 487.52 51.3 487.52C55.38 487.52 59.46 487.94 63.54 488.78C67.62 489.5 71.04 490.46 73.8 491.66C75.6 492.38 76.5 493.52 76.5 495.08L77.04 519.56C77.04 519.92 76.68 520.16 75.96 520.28C75.36 520.4 75 520.28 74.88 519.92C72.48 512.6 69.24 506 65.16 500.12C61.2 494.12 55.2 491.12 47.16 491.12C41.76 491.12 37.44 492.68 34.2 495.8C31.08 498.92 29.52 503.18 29.52 508.58ZM178.71 599.84C179.19 599.84 179.43 600.2 179.43 600.92C179.43 601.64 179.19 602 178.71 602C175.71 602 173.31 601.94 171.51 601.82L161.25 601.64L150.99 601.82C149.19 601.94 146.79 602 143.79 602C143.43 602 143.25 601.64 143.25 600.92C143.25 600.2 143.43 599.84 143.79 599.84C147.75 599.84 150.45 599 151.89 597.32C153.33 595.52 154.05 592.22 154.05 587.42V560.6C154.05 547.4 148.89 540.8 138.57 540.8C135.33 540.8 132.03 541.58 128.67 543.14C125.43 544.58 122.55 546.56 120.03 549.08V587.42C120.03 592.34 120.69 595.64 122.01 597.32C123.45 599 126.21 599.84 130.29 599.84C130.77 599.84 131.01 600.2 131.01 600.92C131.01 601.64 130.77 602 130.29 602C127.29 602 124.89 601.94 123.09 601.82L112.83 601.64L102.57 601.82C100.77 601.94 98.3705 602 95.3705 602C95.0105 602 94.8305 601.64 94.8305 600.92C94.8305 600.2 95.0105 599.84 95.3705 599.84C99.3305 599.84 102.03 599 103.47 597.32C104.91 595.52 105.63 592.22 105.63 587.42V495.44C105.63 491.24 105.21 488.24 104.37 486.44C103.53 484.52 102.15 483.56 100.23 483.56C98.4305 483.56 95.9705 484.28 92.8505 485.72H92.6705C92.3105 485.72 91.9505 485.42 91.5905 484.82C91.3505 484.1 91.4105 483.68 91.7705 483.56L116.79 471.68L117.69 471.5C118.17 471.5 118.65 471.74 119.13 472.22C119.73 472.7 120.03 473.12 120.03 473.48V545.48C128.67 535.52 137.85 530.54 147.57 530.54C154.17 530.54 159.27 532.52 162.87 536.48C166.59 540.44 168.45 545.84 168.45 552.68V587.42C168.45 592.34 169.11 595.64 170.43 597.32C171.87 599 174.63 599.84 178.71 599.84ZM261.125 532.52C261.365 532.52 261.485 532.88 261.485 533.6C261.485 534.32 261.365 534.68 261.125 534.68C257.525 534.68 254.405 536.12 251.765 539C249.245 541.88 246.905 546.26 244.745 552.14L224.045 607.04C219.725 618.56 215.585 627.62 211.625 634.22C207.665 640.82 203.645 645.5 199.565 648.26C195.485 651.14 190.985 652.58 186.065 652.58C182.705 652.58 180.125 651.86 178.325 650.42C176.405 649.1 175.445 647.06 175.445 644.3C175.445 641.9 176.225 640.04 177.785 638.72C179.225 637.52 181.025 636.92 183.185 636.92C184.625 636.92 185.825 637.1 186.785 637.46C187.865 637.94 188.945 638.54 190.025 639.26C191.225 639.98 192.245 640.52 193.085 640.88C194.045 641.24 195.185 641.42 196.505 641.42C199.265 641.42 201.785 640.28 204.065 638C206.465 635.84 208.925 632.18 211.445 627.02C214.085 621.86 217.205 614.54 220.805 605.06L192.365 547.46C189.725 542.3 187.625 538.88 186.065 537.2C184.625 535.52 182.825 534.68 180.665 534.68C180.305 534.68 180.125 534.32 180.125 533.6C180.125 532.88 180.305 532.52 180.665 532.52C183.785 532.52 186.185 532.58 187.865 532.7L194.885 532.88L207.125 532.7C208.925 532.58 211.385 532.52 214.505 532.52C214.865 532.52 215.045 532.88 215.045 533.6C215.045 534.32 214.865 534.68 214.505 534.68C211.265 534.68 208.865 534.98 207.305 535.58C205.865 536.06 205.145 537.02 205.145 538.46C205.145 539.54 205.445 540.62 206.045 541.7L228.005 587.06L240.065 552.14C241.145 549.02 241.685 546.38 241.685 544.22C241.685 537.86 237.665 534.68 229.625 534.68C229.385 534.68 229.265 534.32 229.265 533.6C229.265 532.88 229.385 532.52 229.625 532.52C232.865 532.52 235.325 532.58 237.005 532.7L247.805 532.88L254.825 532.7C256.145 532.58 258.245 532.52 261.125 532.52Z" fill="#4971FF"/>
</svg>

<svg xmlns="http://www.w3.org/2000/svg" width="390" height="654" fill="none" xmlns:v="https://vecta.io/nano"><path d="M57.24 166.72c-3.72 0-8.04-.18-12.96-.54l-6.84-.36a217.61 217.61 0 0 0-9.36-.18l-12.78.18c-2.28.12-5.46.18-9.54.18-.24 0-.36-.36-.36-1.08s.12-1.08.36-1.08c4.08 0 7.02-.3 8.82-.9 1.92-.6 3.24-1.74 3.96-3.42.72-1.8 1.08-4.5 1.08-8.1V68.08c0-3.6-.36-6.24-1.08-7.92-.6-1.68-1.86-2.82-3.78-3.42-1.92-.72-4.86-1.08-8.82-1.08-.24 0-.36-.36-.36-1.08s.12-1.08.36-1.08l9.54.18c5.28.24 9.48.36 12.6.36 4.8 0 9.66-.18 14.58-.54l12.06-.36c12.24 0 23.1 2.4 32.58 7.2s16.8 11.34 21.96 19.62c5.28 8.28 7.92 17.58 7.92 27.9 0 11.64-2.7 21.96-8.1 30.96-5.4 8.88-12.66 15.78-21.78 20.7-9.12 4.8-19.14 7.2-30.06 7.2zm-1.8-3.6c8.28 0 15.6-1.98 21.96-5.94 6.48-3.96 11.52-9.78 15.12-17.46 3.6-7.8 5.4-17.1 5.4-27.9 0-10.32-1.74-19.62-5.22-27.9-3.36-8.4-8.16-15-14.4-19.8-6.24-4.92-13.5-7.38-21.78-7.38-5.04 0-8.94.3-11.7.9s-4.8 1.74-6.12 3.42c-1.2 1.56-1.8 4.02-1.8 7.38v81c0 4.92 1.26 8.46 3.78 10.62 2.52 2.04 7.44 3.06 14.76 3.06zm112.192 5.22c-7.2 0-13.56-1.68-19.08-5.04-5.52-3.48-9.78-8.1-12.78-13.86-3-5.88-4.5-12.24-4.5-19.08 0-7.8 1.92-14.4 5.76-19.8 3.96-5.52 8.94-9.6 14.94-12.24 6.12-2.76 12.36-4.14 18.72-4.14 7.32 0 13.68 1.74 19.08 5.22 5.52 3.48 9.72 8.1 12.6 13.86 2.88 5.64 4.32 11.7 4.32 18.18 0 7.2-1.8 13.62-5.4 19.26-3.48 5.64-8.22 10.02-14.22 13.14-6 3-12.48 4.5-19.44 4.5zm5.4-3.6c5.28 0 9.3-2.34 12.06-7.02 2.88-4.68 4.32-11.52 4.32-20.52 0-8.04-1.14-15.06-3.42-21.06-2.16-6-5.16-10.56-9-13.68-3.72-3.12-7.8-4.68-12.24-4.68-5.4 0-9.48 2.22-12.24 6.66s-4.14 10.98-4.14 19.62c0 7.8 1.02 14.82 3.06 21.06 2.16 6.12 5.1 10.92 8.82 14.4 3.84 3.48 8.1 5.22 12.78 5.22zm130.559-.9c.36 0 .54.36.54 1.08s-.18 1.08-.54 1.08c-3 0-5.34-.06-7.02-.18l-10.44-.18-10.26.18c-1.8.12-4.2.18-7.2.18-.36 0-.54-.36-.54-1.08s.18-1.08.54-1.08c4.08 0 6.78-.84 8.1-2.52s1.98-4.98 1.98-9.9v-27c0-6.72-1.26-11.64-3.78-14.76-2.4-3.24-6.24-4.86-11.52-4.86-3.12 0-6.3.72-9.54 2.16s-6.18 3.36-8.82 5.76v38.7c0 4.92.66 8.22 1.98 9.9s4.02 2.52 8.1 2.52c.36 0 .54.36.54 1.08s-.18 1.08-.54 1.08c-3 0-5.34-.06-7.02-.18l-10.44-.18-10.44.18c-1.68.12-4.02.18-7.02.18-.36 0-.54-.36-.54-1.08s.18-1.08.54-1.08c4.08 0 6.78-.84 8.1-2.52s1.98-4.98 1.98-9.9v-34.38c0-3.84-.48-6.66-1.44-8.46-.84-1.8-2.28-2.7-4.32-2.7-1.8 0-4.8.9-9 2.7h-.18c-.48 0-.84-.3-1.08-.9s-.18-.96.18-1.08l23.58-11.52c.72-.24 1.14-.36 1.26-.36 1.2 0 2.4 1.38 3.6 4.14 1.32 2.64 2.04 6.12 2.16 10.44 8.4-9.96 17.52-14.94 27.36-14.94 6.6 0 11.76 2.04 15.48 6.12 3.72 3.96 5.58 9.36 5.58 16.2v34.74c0 4.92.66 8.22 1.98 9.9s4.02 2.52 8.1 2.52zm4.165-107.1c-.12-1.32 1.62-2.64 5.22-3.96s6.78-1.98 9.54-1.98c1.92 0 2.82.42 2.7 1.26l-10.62 48.06c-.24.24-.78.42-1.62.54-.72.12-1.08 0-1.08-.36l-4.14-43.56zm78.203 97.74c.36 0 .66.24.9.72.36.48.36.84 0 1.08-4.44 4.2-8.64 7.26-12.6 9.18-3.96 1.8-8.16 2.7-12.6 2.7-5.16 0-9.54-1.2-13.14-3.6-3.48-2.52-5.22-6.66-5.22-12.42v-40.68c0-3.96-.66-6.6-1.98-7.92-1.2-1.32-3.6-1.98-7.2-1.98-.12 0-.3-.12-.54-.36-.12-.36-.18-.72-.18-1.08s.06-.66.18-.9c.24-.36.42-.54.54-.54 11.28-.48 18.36-5.34 21.24-14.58.24-.48.72-.72 1.44-.72.84 0 1.26.24 1.26.72v14.22c5.64-.12 13.62-.72 23.94-1.8.24 0 .48.48.72 1.44.36.84.54 1.8.54 2.88s-.24 2.16-.72 3.24c-.36 1.08-.78 1.56-1.26 1.44-6.72-1.56-14.46-2.52-23.22-2.88v43.56c0 4.68 1.14 8.16 3.42 10.44 2.4 2.16 5.7 3.24 9.9 3.24 5.04 0 9.78-1.74 14.22-5.22l.36-.18zM63.18 320.82c9.84 1.08 17.7 4.38 23.58 9.9s8.82 12.36 8.82 20.52c0 6.24-1.74 11.94-5.22 17.1-3.36 5.04-8.1 9.06-14.22 12.06-6 2.88-12.72 4.32-20.16 4.32-3.48 0-7.5-.18-12.06-.54-1.56-.12-3.54-.24-5.94-.36a163.67 163.67 0 0 0-8.1-.18l-12.96.18c-2.28.12-5.4.18-9.36.18-.36 0-.54-.36-.54-1.08s.18-1.08.54-1.08c3.84 0 6.72-.3 8.64-.9 1.92-.72 3.24-1.92 3.96-3.6.84-1.68 1.26-4.32 1.26-7.92v-83.34c0-3.48-.42-6.06-1.26-7.74-.72-1.8-2.04-3-3.96-3.6-1.8-.72-4.62-1.08-8.46-1.08-.24 0-.36-.36-.36-1.08s.12-1.08.36-1.08l9.36.18c5.28.24 9.54.36 12.78.36 3.36 0 6.9-.18 10.62-.54l4.68-.36c1.92-.12 4.08-.18 6.48-.18 10.68 0 18.84 2.04 24.48 6.12s8.46 9.84 8.46 17.28c0 5.76-1.86 10.98-5.58 15.66-3.72 4.56-9 8.16-15.84 10.8zM48.6 274.56c-3.84 0-6.48.78-7.92 2.34-1.32 1.56-1.98 4.74-1.98 9.54v34.2l7.56.18c7.08 0 12.42-2.28 16.02-6.84 3.6-4.68 5.4-10.68 5.4-18 0-6.84-1.62-12.12-4.86-15.84s-7.98-5.58-14.22-5.58zm4.5 106.02c16.2 0 24.3-8.34 24.3-25.02 0-9.12-2.4-16.44-7.2-21.96-4.68-5.52-11.58-8.28-20.7-8.28-4.32 0-7.92.12-10.8.36v43.74c0 2.76.36 4.92 1.08 6.48s2.1 2.76 4.14 3.6c2.04.72 5.1 1.08 9.18 1.08zm120.061-7.92c.24 0 .48.24.72.72.36.48.42.84.18 1.08-4.44 4.08-8.88 7.08-13.32 9-4.44 1.8-9.24 2.7-14.4 2.7-7.32 0-13.68-1.62-19.08-4.86-5.28-3.24-9.36-7.5-12.24-12.78-2.76-5.28-4.14-10.98-4.14-17.1 0-7.08 1.74-13.56 5.22-19.44s8.22-10.5 14.22-13.86c6.12-3.48 12.9-5.22 20.34-5.22 7.2 0 12.78 1.74 16.74 5.22s5.94 8.64 5.94 15.48c0 3.48-.72 5.22-2.16 5.22l-43.92.18c-.12 1.08-.18 2.7-.18 4.86 0 10.56 2.4 18.96 7.2 25.2 4.92 6.12 11.88 9.18 20.88 9.18 3.36 0 6.18-.36 8.46-1.08 2.28-.84 5.34-2.28 9.18-4.32l.36-.18zm-28.98-56.16c-4.44 0-8.1 1.74-10.98 5.22-2.76 3.36-4.62 8.04-5.58 14.04l28.8-.54c-.24-12.48-4.32-18.72-12.24-18.72zM29.52 508.58c0 4.44 1.08 8.4 3.24 11.88 2.28 3.36 5.04 6.3 8.28 8.82 3.36 2.52 7.86 5.52 13.5 9 6.12 3.84 10.92 7.14 14.4 9.9 3.6 2.76 6.6 6.18 9 10.26 2.52 3.96 3.78 8.64 3.78 14.04 0 6.12-1.62 11.58-4.86 16.38-3.12 4.8-7.62 8.58-13.5 11.34-5.76 2.64-12.36 3.96-19.8 3.96-5.04 0-10.26-.66-15.66-1.98-5.28-1.32-9.3-2.94-12.06-4.86-1.08-.72-1.68-1.86-1.8-3.42l-1.08-27.36v-.18c0-.48.3-.72.9-.72.6-.12.96.06 1.08.54 3.96 9.96 8.46 18.12 13.5 24.48 5.16 6.36 11.7 9.54 19.62 9.54 5.16 0 9.48-1.38 12.96-4.14 3.48-2.88 5.22-7.62 5.22-14.22 0-5.28-1.2-9.9-3.6-13.86-2.28-3.96-5.16-7.26-8.64-9.9-3.36-2.64-7.98-5.88-13.86-9.72-5.76-3.72-10.26-6.84-13.5-9.36-3.24-2.64-6-5.82-8.28-9.54-2.28-3.84-3.42-8.28-3.42-13.32 0-6.24 1.74-11.52 5.22-15.84s7.98-7.5 13.5-9.54c5.64-2.16 11.52-3.24 17.64-3.24 4.08 0 8.16.42 12.24 1.26 4.08.72 7.5 1.68 10.26 2.88 1.8.72 2.7 1.86 2.7 3.42l.54 24.48c0 .36-.36.6-1.08.72-.6.12-.96 0-1.08-.36-2.4-7.32-5.64-13.92-9.72-19.8-3.96-6-9.96-9-18-9-5.4 0-9.72 1.56-12.96 4.68-3.12 3.12-4.68 7.38-4.68 12.78zm149.19 91.26c.48 0 .72.36.72 1.08s-.24 1.08-.72 1.08c-3 0-5.4-.06-7.2-.18l-10.26-.18-10.26.18c-1.8.12-4.2.18-7.2.18-.36 0-.54-.36-.54-1.08s.18-1.08.54-1.08c3.96 0 6.66-.84 8.1-2.52 1.44-1.8 2.16-5.1 2.16-9.9V560.6c0-13.2-5.16-19.8-15.48-19.8-3.24 0-6.54.78-9.9 2.34-3.24 1.44-6.12 3.42-8.64 5.94v38.34c0 4.92.66 8.22 1.98 9.9 1.44 1.68 4.2 2.52 8.28 2.52.48 0 .72.36.72 1.08s-.24 1.08-.72 1.08c-3 0-5.4-.06-7.2-.18l-10.26-.18-10.26.18c-1.8.12-4.199.18-7.199.18-.36 0-.54-.36-.54-1.08s.18-1.08.54-1.08c3.96 0 6.659-.84 8.099-2.52 1.44-1.8 2.16-5.1 2.16-9.9v-91.98c0-4.2-.42-7.2-1.26-9-.84-1.92-2.22-2.88-4.14-2.88-1.8 0-4.26.72-7.38 2.16h-.18c-.36 0-.72-.3-1.08-.9-.24-.72-.18-1.14.18-1.26l25.02-11.88.9-.18c.48 0 .96.24 1.44.72.6.48.9.9.9 1.26v72c8.64-9.96 17.82-14.94 27.54-14.94 6.6 0 11.7 1.98 15.3 5.94 3.72 3.96 5.58 9.36 5.58 16.2v34.74c0 4.92.66 8.22 1.98 9.9 1.44 1.68 4.2 2.52 8.28 2.52zm82.415-67.32c.24 0 .36.36.36 1.08s-.12 1.08-.36 1.08c-3.6 0-6.72 1.44-9.36 4.32-2.52 2.88-4.86 7.26-7.02 13.14l-20.7 54.9c-4.32 11.52-8.46 20.58-12.42 27.18s-7.98 11.28-12.06 14.04c-4.08 2.88-8.58 4.32-13.5 4.32-3.36 0-5.94-.72-7.74-2.16-1.92-1.32-2.88-3.36-2.88-6.12 0-2.4.78-4.26 2.34-5.58 1.44-1.2 3.24-1.8 5.4-1.8 1.44 0 2.64.18 3.6.54 1.08.48 2.16 1.08 3.24 1.8 1.2.72 2.22 1.26 3.06 1.62.96.36 2.1.54 3.42.54 2.76 0 5.28-1.14 7.56-3.42 2.4-2.16 4.86-5.82 7.38-10.98 2.64-5.16 5.76-12.48 9.36-21.96l-28.44-57.6c-2.64-5.16-4.74-8.58-6.3-10.26-1.44-1.68-3.24-2.52-5.4-2.52-.36 0-.54-.36-.54-1.08s.18-1.08.54-1.08c3.12 0 5.52.06 7.2.18l7.02.18 12.24-.18c1.8-.12 4.26-.18 7.38-.18.36 0 .54.36.54 1.08s-.18 1.08-.54 1.08c-3.24 0-5.64.3-7.2.9-1.44.48-2.16 1.44-2.16 2.88 0 1.08.3 2.16.9 3.24l21.96 45.36 12.06-34.92c1.08-3.12 1.62-5.76 1.62-7.92 0-6.36-4.02-9.54-12.06-9.54-.24 0-.36-.36-.36-1.08s.12-1.08.36-1.08c3.24 0 5.7.06 7.38.18l10.8.18 7.02-.18c1.32-.12 3.42-.18 6.3-.18z" fill="#4971ff"/></svg>
